icons/chat-smile-2-line.svg

<svg viewBox="0 0 24 24" fill="currentColor" xmlns="http://www.w3.org/2000/svg"><path d="M7.29117 20.8242L2 22L3.17581 16.7088C2.42544 15.3056 2 13.7025 2 12C2 6.47715 6.47715 2 12 2C17.5228 2 22 6.47715 22 12C22 17.5228 17.5228 22 12 22C10.2975 22 8.6944 21.5746 7.29117 20.8242ZM7.58075 18.711L8.23428 19.0605C9.38248 19.6745 10.6655 20 12 20C16.4183 20 20 16.4183 20 12C20 7.58172 16.4183 4 12 4C7.58172 4 4 7.58172 4 12C4 13.3345 4.32549 14.6175 4.93949 15.7657L5.28896 16.4192L4.63416 19.3658L7.58075 18.711ZM7 12H9C9 13.6569 10.3431 15 12 15C13.6569 15 15 13.6569 15 12H17C17 14.7614 14.7614 17 12 17C9.23858 17 7 14.7614 7 12Z"/></svg>

<svg xmlns="http://www.w3.org/2000/svg" viewBox="0 0 24 24">
    <g>
        <path fill="none" d="M0 0h24v24H0z"/>
        <path d="M7.291 20.824L2 22l1.176-5.291A9.956 9.956 0 0 1 2 12C2 6.477 6.477 2 12 2s10 4.477 10 10-4.477 10-10 10a9.956 9.956 0 0 1-4.709-1.176zm.29-2.113l.653.35A7.955 7.955 0 0 0 12 20a8 8 0 1 0-8-8c0 1.334.325 2.618.94 3.766l.349.653-.655 2.947 2.947-.655zM7 12h2a3 3 0 0 0 6 0h2a5 5 0 0 1-10 0z"/>
    </g>
</svg>
